svgs/sharp-light/calendar-arrow-down.svg

<svg xmlns="http://www.w3.org/2000/svg" viewBox="0 0 448 512"><!--! Font Awesome Pro 6.6.0 by @fontawesome - https://fontawesome.com License - https://fontawesome.com/license (Commercial License) Copyright 2024 Fonticons, Inc. --><path d="M128 16l0-16L96 0l0 16 0 48L32 64 0 64 0 96l0 64 0 32L0 480l0 32 32 0 384 0 32 0 0-32 0-288 0-32 0-64 0-32-32 0-64 0 0-48 0-16L320 0l0 16 0 48L128 64l0-48zM32 192l384 0 0 288L32 480l0-288zm0-96l384 0 0 64L32 160l0-64zM240 256l0-16-32 0 0 16 0 121.4-52.7-52.7L144 313.4 121.4 336l11.3 11.3 80 80L224 438.6l11.3-11.3 80-80L326.6 336 304 313.4l-11.3 11.3L240 377.4 240 256z"/></svg>

<svg xmlns="http://www.w3.org/2000/svg" viewBox="0 0 448 512"><!--! Font Awesome Pro 6.4.2 by @fontawesome - https://fontawesome.com License - https://fontawesome.com/license (Commercial License) Copyright 2023 Fonticons, Inc. --><path d="M128 16V0H96V16 64H32 0V96v64 32V480v32H32 416h32V480 192 160 96 64H416 352V16 0H320V16 64H128V16zM32 192H416V480H32V192zm0-96H416v64H32V96zM240 256V240H208v16V377.4l-52.7-52.7L144 313.4 121.4 336l11.3 11.3 80 80L224 438.6l11.3-11.3 80-80L326.6 336 304 313.4l-11.3 11.3L240 377.4V256z"/></svg>
